X:1
T:Birth of Christ the Lord
T:Birth of Christ the Lord
T:William Augustine Ogden
T:William Augustine Ogden, 1878
T:Public Domain Courtesy of the Cyber Hymnal™
T:Public Domain Courtesy of the Cyber Hymnal™
C:William Augustine Ogden
Z:Public Domain
Z:Courtesy of the Cyber Hymnal™
%%score ( 1 2 ) ( 3 4 )
L:1/8
Q:1/4=105
M:9/8
K:F
V:1 treble 
V:2 treble 
V:3 bass 
V:4 bass 
V:1
 F[FG][FA] | [Ac]3 [Bd]3 [Ac][FA]F | [FA]3 [EG]3 [EG][EG][FA] | [EB]3 [EB]3 ([GB][Ac])[GB] | %4
w: 1.~“Glo- ry to|God!” the an- gels are|sing- ing, Tid- ings of|joy to men * they|
w: 2.~“Glo- ry to|God!” the won- der- ful|cho- rus! “Peace and good|will,” the an- * gels|
w: 3.~“Glo- ry to|God!” the mul- ti- tude|sing- eth, Glo- ry to|God! let men * re-|
 [FA]3- [FA]2 z F[FG][FA] | [Ac]3 [Bd]3 [Ac][FA]F | [FA]3 [EG]3 [EG][EG][FA] | %7
w: bring; * Beth- le- hem’s|plain with mu- sic is|ring- ing, Je- sus to-|
w: sing, * For un- to|you is born in the|ci- ty, Ci- ty of|
w: ply; * Glo- ry to|God! the e- cho still|ring- eth, Ring- eth a-|
 [EB]3 [EB]3 [FA]2 [EG] | F3- F2 z [EG][CE][EG] | [Ec]3 [Ge]3 [Fd][Ec][D=B] | %10
w: day is born a|king; * Not in a|pal- ace, but in a|
w: Da- vid, Christ a|king. * Born to re-|deem, oh, might- y sal-|
w: loud thro’ earth and|sky, * Na- tions shall|sit no lon- ger in|
 [Ec]3 [EG]3 [FA][FA][FA] | G3 [Gc]3 [Gd]2 [Ge] | [Gd]3- [Gd]2 z [EG][CE][EG] | %13
w: man- ger, Li- eth the|dear Re- deem- er’s|head, * Gird- ed with|
w: va- tion! Je- sus, the|Christ, oh, yes, ’tis|He! * Wrapped in the|
w: dark- ness, Tell the good|news o’er earth a-|far! * Seat- ed in|
 [Ec]3 [Ge]3 [Fd][Ec][D=B] | [Ec]3 [EG]3 [FA][FA][FA] | G3 ([Ec]2 [Ec]) [F=B]2 [Fd] | %16
w: glo- ry sag- es be-|hold Him, Low where the|beasts of~the * stall are|
w: swad- dling gar- ments be-|hold Him, This un- to|you a * sign shall|
w: glo- ry n- ow be-|hold Him, Je- sus the|bright and * morn- ing|
 [Ec]3- [Ec]2 z ||"^Refrain" cde | f3- [Af]2 [Bd] [Ac][Bd][Ac] | [FA]3 F3 FGA | %20
w: fed. *||||
w: be. *|“Glo- ry to|God!” the an- gels are sing-|* ing, Peace and good|
w: star. *||||
 G3- [EG]2 [Bd] [Ac]2 [GB] | [FA]3- [FA]2 z cde | f3- [Af]2 [Bd] [Ac][Bd][Ac] | %23
w: |||
w: will to men they bring.|* * Beth- le- hem’s|plain with mu- sic is ring-|
w: |||
 [FA]3 F3 F[FG][FA] | ([EG]2 [Bd] [Ac]2) [GB] [FA]2 [CG] | [CF]3- [CF]2 z |] %26
w: |||
w: * ing, Je- sus to-|day * * is born a|king. *|
w: |||
V:2
 F x2 | x8 F | x9 | x9 | x6 F x2 | x8 F | x9 | x9 | F3- F2 x4 | x9 | x9 | G3 x6 | x9 | x9 | x9 | %15
 G3 x6 | x6 || x3 | AAA x6 | x3 F3 x3 | EEE x6 | x9 | AAA x6 | x3 F3 F x2 | x9 | x6 |] %26
V:3
 [F,A,][F,B,][F,C] | [F,F]3 [F,F]3 [F,F][F,C][F,A,] | [C,C]3 [C,C]3 [B,C][B,C][A,C] | %3
w: ~ ~ ~|~ ~ ~ ~ ~|~ ~ ~ ~ ~|
 [G,C]3 [G,C]3 [C,C]2 [C,B,] | [F,C]3- [F,C]2 z [F,A,][F,B,][F,C] | %5
w: ~ ~ ~ ~|~ * ~ ~ ~|
 [F,F]3 [F,F]3 [F,F][F,C][F,A,] | [C,C]3 [C,C]3 [B,C][B,C][A,C] | [G,C]3 [G,C]3 [C,C]2 [C,B,] | %8
w: ~ ~ ~ ~ ~|~ ~ ~ ~ ~|~ ~ ~ ~|
 [F,A,]3- [F,A,]2 z [C,C][C,C][C,C] | [C,G,]3 [C,C]3 [G,,=B,][G,,C][G,,D] | %10
w: ~ * ~ ~ ~|~ ~ ~ ~ ~|
 [C,G,]3 [C,C]3 [F,C][F,C][F,C] | [E,C]3 [C,E]3 [G,=B,]2 [G,C] | %12
w: ~ ~ ~ ~ ~|~ ~ ~ ~|
 [G,=B,]3- [G,B,]2 z [C,C][C,C][C,C] | [C,G,]3 [C,C]3 [G,,=B,][G,,C][G,,D] | %14
w: ~ * ~ ~ ~|~ ~ ~ ~ ~|
 [C,G,]3 [C,C]3 [F,C][F,C][F,C] | [E,C]3 ([A,C]2 [A,C]) [G,D]2 [G,=B,] | [C,C]3- [C,C]2 z || z3 | %18
w: ~ ~ ~ ~ ~|~ ~ * ~ ~|~ *||
 [F,C][F,C][F,C] [F,C]2 [F,F] [F,F][F,F][F,F] | [F,C]3 [F,A,]3 z3 | %20
w: Glo- ry to God ~ ~ ~ ~|~ ~|
 [C,C][C,C][C,C] [C,C]2 [C,C] [C,C]2 [C,C] | [F,C]3- [F,C]2 z4 | %22
w: Peace and good will, ~ ~ ~|~ *|
 [F,C][F,C][F,C] [F,C]2 [F,F] [F,F][F,F][F,F] | [F,C]3 [F,A,]3 A,B,C | %24
w: Beth- le- hem’s plain ~ ~ ~ ~|~ ~ ~ ~ ~|
 C3- [C,C]2 [C,C] [C,C]2 [C,B,] | [F,,F,A,]3- [F,,F,A,]2 z |] %26
w: Je- * sus to- day,||
V:4
 x3 | x9 | x9 | x9 | x9 | x9 | x9 | x9 | x9 | x9 | x9 | x9 | x9 | x9 | x9 | x9 | x6 || x3 | x9 | %19
 x9 | x9 | x9 | x9 | x9 | C,C,C, x6 | x6 |] %26

